X:1
T:In partu dolor est
T:Daniel Friderici
T:Source : Bicinia sacra---Rostock---J.Richelius---1642. Editor : André Vierendeels (07/07/17).
T:Notes : Original clefs : C1, C1 Original note values have been halved in 3-beat measures Editorial accidentals above the staff 
T:In partu dolor est
T:©
T:©
T:©
C:Daniel Friderici
Z:©
%%score [ 1 2 ]
L:1/8
Q:1/4=120
M:2/2
K:C
V:1 treble nm="Soprano 1" snm="S 1"
V:2 treble nm="Soprano 2" snm="S 2"
V:1
 E8 | e8- | e4 d4 | c8- | c4 B4 | A8- | A4 c4- | c4 B4 | c4 A4 | B8- | B4 E4 | e6 d2 | %12
w: In|par-|* tu|do-|* lor|est,|_ do-||* lor|est,|_ in|par- *|
 c2 B2 A2 ^G2 | A2 B2 c4 | c4 B4 | e8- | e4 d4- | d4 c4 | B4 B4 | A4 c4 | B4 c4 | d4 B4 | %22
w: ||* tu|do-|||* lor|est, do-||lor est,|
[M:6/4] A4 e2 e3 d e2 | d3 c d2 e4 c2 | B4 e2 e3 d e2 | d3 c d2 c4 d2 |[M:2/2] e4 E4 | G4 A4 | B8 | %29
w: de in gau- di- a,|gau- di- a, gau- di-|a, in gau- di- a,|gau- di- a, gau- di-|a vin-|ce do-|lo-|
 B8 :: A3 ^G A2 G2 | A2 B2 c4- | c4 d4 | e8 | dc de/d/ cB cd/c/ | BA Bc/B/ A^G AB/A/ | ^G2 A4 G2 | %37
w: rem:|Sae- pe De- us|quae sunt tri-|* sti-|a|lae- * * * * * * * * *||ta fa- *|
 A4 e3 d | e3 c d3 e | d2 c2 B4 | A2 c3 B cA |"^-natural" BGA^F ^G2 G2 | ABcA B4 | A8 :| %44
w: cit, lae- *||* ta fa-|cit, lae- * * *|* * * * * ta|fa- * * * *|cit.|
V:2
 z8 | E8 | e8- | e4 d4 | c8- | c4 B4 | A8 | E2 F2 G2 E2 | A8- | A4 ^G4 | ^G8 | z2 E2 e4- | %12
w: |In|par-|* tu|do-|||||* lor|est,|in par-|
 e2 d2 c2 B2 | A2 ^G2 A4 | E8- | E4 A4 | G8 | F6 E2- | E2 E2 E4 | z4 A4 | ^G4 A2 F2- | FE D4 E2 | %22
w: ||tu,|_ in|par-|tu do-|* lor- est,|in|par- tu do-|* * lor est,|
[M:6/4] A4 A2 c3 B c2 | G3 A G2 EC c2 A2 | B4 A2 c3 B c2 | G3 A G2 A4 F2 |[M:2/2] E4 z2 e2- | %27
w: de in gau- di- a,|gau- di- a, gau- * * di-|a, in gau- di- a,|gau- di- a, gau- di-|a vin-|
 e2 d4 c2 | B8 | B8 :: c3 B c2 B2 |"^-natural" c2 B2 A3 G | F4 F4 | E2 E3 D EF | G3 E F3 D | %35
w: * ce do-|lo-|rem:|Sae- pe De- us|quae sunt tri- sti-|a lae-|||
 E3 C DE FG/A/ | B2 c2 B4 |"^-natural" A2 A3 G AB | cBcA BABc | B2 A4 ^G2 | A2 e3 d ec | %41
w: |* ta fa-|cit, lae- * * *||* ta fa-|cit, lae- * * *|
 dBcA B2 E2 | ^FG A3 ^G/F/ G2 | A8 :| %44
w: * * * * * ta|fa- * * * * *|cit.|

